svgtoswiftui.svg

<?xml version="1.0" encoding="UTF-8"?>
<svg width="8px" height="7px" viewBox="0 0 8 7" version="1.1" xmlns="http://www.w3.org/2000/svg" xmlns:xlink="http://www.w3.org/1999/xlink">
    <title>Group</title>
    <g id="Page-1" stroke="none" stroke-width="1" fill="none" fill-rule="evenodd">
        <g id="Group" transform="translate(-0.000002, 0.000000)">
            <path d="M4.47014066,0.757185938 L4.47281253,0.751790625 L4.53173441,0.873982813 C4.55873441,0.858579688 4.58615628,0.843626562 4.61403128,0.829126562 C4.95004691,0.64860625 5.32171878,0.560532812 5.72315628,0.560532812 C6.09428128,0.560532812 6.44534378,0.6473125 6.77235941,0.8202375 C6.91851566,0.896192187 7.05542191,0.9836875 7.18295316,1.08259375 L7.66878128,0.567239062 L7.78415628,1.402 L7.78837503,1.39770313 L8,2.9879375 L6.40596878,2.80717187 L6.40792191,2.8051875 L5.61104691,2.71759375 L6.07254691,2.238625 C6.07068753,2.23748438 6.06881253,2.23634375 6.06695316,2.23520312 C6.06568753,2.2344375 6.06442191,2.23365625 6.06317191,2.23285937 C6.06239066,2.232375 6.06162503,2.23189063 6.06085941,2.23139062 C5.95229691,2.16160937 5.82581253,2.12407813 5.67254691,2.12407813 C5.49628128,2.12407813 5.39987503,2.16945312 5.34304691,2.22370313 L5.34281253,2.22392187 C5.28023441,2.28351563 5.25260941,2.34796875 5.25260941,2.434375 C5.25260941,2.47653125 5.26415628,2.51101563 5.32282816,2.5536875 C5.43909378,2.63823438 5.60134378,2.74660937 5.81175003,2.87953125 L6.34839066,3.20654687 C6.63931253,3.38004688 6.87053128,3.58857813 7.02371878,3.8385625 C7.18307816,4.092875 7.25125003,4.40471875 7.25125003,4.75346875 C7.25125003,5.1369375 7.14971878,5.492375 6.94684378,5.8133125 C6.74885941,6.1298125 6.47007816,6.37648438 6.12004691,6.55467188 C5.76389066,6.73598438 5.35314066,6.82128125 4.89671878,6.82128125 C4.49462503,6.82128125 4.10353128,6.73301563 3.72578128,6.559625 C3.72506253,6.55929688 3.72434378,6.55896875 3.72362503,6.558625 C3.72265628,6.55817188 3.72168753,6.55771875 3.72073441,6.55725 C3.67635941,6.53579687 3.63262503,6.512875 3.58953128,6.48851562 C3.55010941,6.51153125 3.50967191,6.53357813 3.46825003,6.55467188 C3.11209378,6.73598438 2.70134378,6.82128125 2.24492191,6.82128125 C1.84282816,6.82128125 1.45173753,6.73301563 1.07397816,6.559625 C1.07228909,6.55884375 1.07060941,6.5580625 1.06893753,6.55725 C0.682879719,6.37065625 0.345945344,6.07307813 0.0547731564,5.67878125 C-0.0351549686,5.557 -0.012009953,5.38579687 0.107025031,5.29226562 L0.933464094,4.64292187 C0.993896906,4.5954375 1.07119378,4.57489063 1.14723128,4.58607813 C1.22326878,4.59726563 1.29136253,4.63923438 1.33555159,4.70210938 C1.45899222,4.87778125 1.60923441,5.01873438 1.78745316,5.12729687 C1.96637503,5.22748438 2.14578128,5.27460937 2.32925003,5.27460937 C2.52110941,5.27460937 2.64700003,5.229375 2.73196878,5.16401563 C2.80406253,5.1085625 2.84195316,5.03871875 2.84195316,4.922125 C2.84195316,4.86492188 2.82498441,4.828625 2.77517191,4.79067188 C2.77120316,4.78764062 2.76731253,4.78451563 2.76351566,4.78128125 C2.66556253,4.69803125 2.52378128,4.59670313 2.33335941,4.47695312 L1.81187503,4.15732813 L1.81076566,4.15665625 L1.81028128,4.15634375 L1.80939066,4.15579688 L1.80896878,4.15551562 L1.80785941,4.15482812 C1.53504222,3.98120313 1.30833128,3.77540625 1.13326253,3.5355 C1.13159222,3.53321875 1.12995784,3.53090625 1.12835784,3.5285625 C0.941932844,3.25609375 0.860184406,2.9208125 0.860184406,2.54401563 C0.860184406,2.17596875 0.959746906,1.83764062 1.16020159,1.53695313 L1.16098128,1.53579687 C1.36252503,1.23673437 1.63160941,1.00115625 1.96223441,0.829126562 C2.29825003,0.64860625 2.66992191,0.560532812 3.07135941,0.560532812 C3.31790628,0.560532812 3.55562503,0.598834375 3.78329691,0.67525 L4.10025003,0 L4.47014066,0.757185938 Z M4.55414066,5.18434375 C4.69509378,5.24548438 4.83681253,5.27460937 4.98104691,5.27460937 C5.17290628,5.27460937 5.29879691,5.229375 5.38376566,5.16401563 C5.45585941,5.1085625 5.49375003,5.03871875 5.49375003,4.922125 C5.49375003,4.86492188 5.47678128,4.828625 5.42696878,4.79067188 C5.42625003,4.790125 5.42553128,4.7895625 5.42481253,4.78901563 C5.42414066,4.78848438 5.42346878,4.78796875 5.42279691,4.7874375 C5.42026566,4.78542187 5.41776566,4.783375 5.41531253,4.78128125 C5.31735941,4.69803125 5.17557816,4.59670313 4.98515628,4.47695312 L4.52884378,4.19728125 C4.57732816,4.36815625 4.59945316,4.55482813 4.59945316,4.75346875 C4.59945316,4.90139063 4.58434378,5.04514063 4.55414066,5.18434375 Z M3.59639066,3.14548438 C3.53868753,2.96120312 3.51198441,2.75939062 3.51198441,2.54401563 C3.51198441,2.54201562 3.51198441,2.54003125 3.51198441,2.53804688 L2.84912503,2.67765625 C2.93762503,2.73720313 3.04110941,2.80445313 3.15995316,2.87953125 L3.59639066,3.14548438 Z M3.08507816,2.126375 C3.06417191,2.12484375 3.04273441,2.12407812 3.02075003,2.12407812 C2.84448441,2.12407812 2.74807816,2.16945312 2.69125003,2.22370312 L2.69101566,2.22392187 C2.62843753,2.28351562 2.60081253,2.34796875 2.60081253,2.434375 C2.60081253,2.47653125 2.61235941,2.51101562 2.67103128,2.5536875 C2.71590628,2.58632812 2.76764066,2.62251562 2.82635941,2.66229687 L3.08507816,2.126375 Z" id="Shape" fill="#FFFFFF"></path>
            <path d="M1.10645628,4.86309375 C1.25262816,5.07110937 1.43253441,5.23978125 1.64617191,5.36907812 C1.86543753,5.49276562 2.09312503,5.55460938 2.32925003,5.55460938 C2.44817191,5.55460938 2.55568753,5.54034375 2.65179691,5.51182813 C2.65162503,5.5699375 2.66948441,5.6285625 2.70656253,5.67878125 C2.89318753,5.93148438 3.09859378,6.14446875 3.32368753,6.31395313 C3.01821878,6.4655 2.65862503,6.54128125 2.24492191,6.54128125 C1.88510941,6.54128125 1.53372972,6.4625625 1.19078597,6.30515625 C0.853464094,6.14210938 0.549875031,5.877875 0.280017219,5.5124375 Z M4.11045316,0.603553125 L4.80734378,2.04853125 L3.23640628,2.37378125 L3.45253128,1.93604688 C3.32223441,1.87473438 3.17831253,1.8440625 3.02075003,1.8440625 C2.79587503,1.8440625 2.62159378,1.90309375 2.49790628,2.02115625 C2.37984378,2.13360937 2.32081253,2.27134375 2.32081253,2.434375 C2.32081253,2.5749375 2.38265628,2.6901875 2.50634378,2.78014063 C2.63003128,2.87009375 2.79868753,2.98253125 3.01232816,3.11745312 L3.55203128,3.44634375 C3.81628128,3.60376563 4.01023441,3.78367187 4.13392191,3.9860625 C4.25760941,4.18282813 4.31945316,4.43864062 4.31945316,4.75346875 C4.31945316,4.84795313 4.31237503,4.94017187 4.29823441,5.03009375 C4.18023441,4.93839063 4.07676566,4.82935937 3.98734378,4.70210937 C3.94315628,4.63923437 3.87506253,4.59726563 3.79903128,4.58607813 C3.72298441,4.57489063 3.64568753,4.5954375 3.58526566,4.64292187 L3.11660941,5.01114062 C3.12017191,4.9825 3.12195316,4.95282812 3.12195316,4.922125 C3.12195316,4.77595312 3.06292191,4.65789063 2.94485941,4.5679375 C2.83242191,4.472375 2.67781253,4.36273437 2.48104691,4.23904687 L1.95818753,3.91859375 C1.71082816,3.7611875 1.51124222,3.57846875 1.35944691,3.37045313 C1.21327503,3.1568125 1.14018753,2.88132813 1.14018753,2.54401563 C1.14018753,2.22917188 1.22451878,1.94526563 1.39317972,1.69228125 C1.56746878,1.43365625 1.80078128,1.22845312 2.09312503,1.07665625 C2.38546878,0.919245312 2.71154691,0.8405375 3.07135941,0.8405375 C3.36434378,0.8405375 3.64145316,0.901814062 3.90267191,1.024375 L4.11045316,0.603553125 Z" id="Combined-Shape" fill="#F6E338" fill-rule="nonzero"></path>
            <path d="M5.00826566,2.2301875 C4.98450003,2.29315625 4.97260941,2.36121875 4.97260941,2.434375 C4.97260941,2.5749375 5.03445316,2.6901875 5.15814066,2.78014063 C5.28182816,2.87009375 5.45048441,2.98253125 5.66412503,3.11745313 L6.20382816,3.44634375 C6.46806253,3.60376563 6.66203128,3.78367188 6.78571878,3.9860625 C6.90940628,4.18282813 6.97123441,4.43864062 6.97123441,4.75346875 C6.97123441,5.08517188 6.88409378,5.38875 6.70981253,5.66423438 C6.54115628,5.93409375 6.30221878,6.14773438 5.99301566,6.30514063 C5.68379691,6.4625625 5.31835941,6.54126563 4.89671878,6.54126563 C4.53690628,6.54126563 4.18553128,6.4625625 3.84257816,6.30514063 C3.50526566,6.14210938 3.20167191,5.877875 2.93181253,5.5124375 L3.75825003,4.86309375 C3.90442191,5.07110938 4.08432816,5.23978125 4.29796878,5.36907812 C4.51721878,5.49276563 4.74492191,5.55460938 4.98104691,5.55460938 C5.21717191,5.55460938 5.40831253,5.49839063 5.55448441,5.38595313 C5.70065628,5.2735 5.77375003,5.11890625 5.77375003,4.922125 C5.77375003,4.77595313 5.71471878,4.65789063 5.59665628,4.5679375 C5.48421878,4.47235937 5.32960941,4.36273438 5.13284378,4.23904687 L4.60998441,3.91859375 C4.36262503,3.7611875 4.16303128,3.57846875 4.01125003,3.37045313 C3.86507816,3.1568125 3.79198441,2.88132813 3.79198441,2.54401563 C3.79198441,2.523125 3.79235941,2.50239063 3.79309378,2.48178125 L5.00826566,2.2301875 Z M5.72315628,0.840535938 C6.04923441,0.840535938 6.35562503,0.916432813 6.64235941,1.06823438 C6.84037503,1.17104688 7.01906253,1.29709375 7.17839066,1.44634375 L7.48615628,1.12726563 L7.71106253,2.71567187 L6.11556253,2.54823437 L6.46975003,2.18103125 C6.38659378,2.1113125 6.30076566,2.04959375 6.21226566,1.99585938 C6.05484378,1.89467187 5.87495316,1.8440625 5.67254691,1.8440625 C5.44767191,1.8440625 5.27339066,1.90309375 5.14970316,2.02115625 C5.13439066,2.03575 5.12006253,2.05076563 5.10673441,2.06620312 L4.65370316,1.126875 C4.68343753,1.10953125 4.71384378,1.09279688 4.74492191,1.07665625 C5.03726566,0.919245313 5.36334378,0.840535938 5.72315628,0.840535938 Z" id="Combined-Shape" fill="#F05138" fill-rule="nonzero"></path>
        </g>
    </g>
</svg>

<svg width="8" height="7" xmlns="http://www.w3.org/2000/svg"><g fill="none" fill-rule="evenodd"><path d="m4.47.757.003-.005.059.122.082-.045a2.31 2.31 0 0 1 1.11-.268c.37 0 .721.086 1.048.26a2.7 2.7 0 0 1 .411.262l.486-.516.115.835.004-.004L8 2.988l-1.594-.18.002-.003-.797-.087.462-.48-.006-.003a.19.19 0 0 1-.006-.004.697.697 0 0 0-.388-.107c-.177 0-.273.045-.33.1a.27.27 0 0 0-.09.21c0 .043.011.077.07.12.116.084.278.193.489.326l.536.327c.291.173.523.382.676.632.16.254.227.566.227.914 0 .384-.101.74-.304 1.06a2.048 2.048 0 0 1-.827.742c-.356.181-.767.266-1.223.266A2.782 2.782 0 0 1 3.59 6.49c-.04.023-.08.045-.122.066-.356.181-.767.266-1.223.266a2.782 2.782 0 0 1-1.176-.264C.683 6.371.346 6.073.055 5.68a.28.28 0 0 1 .052-.387l.826-.65a.28.28 0 0 1 .403.06c.123.176.273.317.451.425.18.1.359.148.542.148.192 0 .318-.046.403-.111.072-.055.11-.125.11-.242 0-.057-.017-.093-.067-.131a3.85 3.85 0 0 0-.442-.314l-.521-.32H1.81l-.002-.001-.001-.001a2.453 2.453 0 0 1-.68-.626C.942 3.256.86 2.92.86 2.544c0-.368.1-.706.3-1.007l.001-.001c.202-.3.47-.535.801-.707a2.31 2.31 0 0 1 1.11-.268c.246 0 .484.038.711.114L4.1 0l.37.757Zm.084 4.427c.141.061.283.09.427.09.192 0 .318-.045.403-.11.072-.055.11-.125.11-.242 0-.057-.017-.093-.067-.131l-.002-.002-.002-.002a3.85 3.85 0 0 0-.438-.31l-.456-.28c.048.171.07.358.07.556 0 .148-.015.292-.045.431Zm-.958-2.039a2.01 2.01 0 0 1-.084-.601v-.006l-.663.14c.089.06.192.126.311.202l.436.265Zm-.51-1.019a.88.88 0 0 0-.065-.002c-.177 0-.273.045-.33.1a.27.27 0 0 0-.09.21c0 .043.011.077.07.12.045.032.097.069.155.108l.26-.536Z" fill="#FFF"/><path d="M1.106 4.863c.147.208.327.377.54.506.22.124.447.186.683.186.12 0 .227-.015.323-.043 0 .058.017.117.055.167.186.252.392.465.617.635-.306.151-.665.227-1.08.227-.359 0-.71-.078-1.053-.236C.853 6.142.55 5.878.28 5.512ZM4.11.603l.697 1.446-1.57.325.216-.438a1.001 1.001 0 0 0-.432-.092c-.225 0-.4.06-.523.177a.549.549 0 0 0-.177.413c0 .14.062.256.185.346.124.09.293.203.506.337l.54.33c.264.157.458.337.582.54.124.196.185.452.185.766 0 .095-.007.187-.02.277a1.515 1.515 0 0 1-.312-.328.28.28 0 0 0-.402-.06l-.468.37a.72.72 0 0 0 .005-.09.424.424 0 0 0-.177-.354 4.124 4.124 0 0 0-.464-.329l-.523-.32a2.173 2.173 0 0 1-.599-.549c-.146-.213-.219-.489-.219-.826 0-.315.085-.599.253-.852a1.86 1.86 0 0 1 .7-.615A2.03 2.03 0 0 1 3.071.84c.293 0 .57.06.832.183l.207-.42Z" fill="#F6E338" fill-rule="nonzero"/><path d="M5.008 2.23a.574.574 0 0 0-.035.204c0 .14.061.256.185.346.124.09.292.203.506.337l.54.33c.264.157.458.337.582.54.123.196.185.452.185.766 0 .332-.087.636-.261.911-.169.27-.408.484-.717.641-.31.158-.675.236-1.096.236-.36 0-.711-.078-1.054-.236-.338-.163-.641-.427-.911-.793l.826-.649c.146.208.326.377.54.506.22.124.447.186.683.186.236 0 .427-.057.573-.169a.553.553 0 0 0 .22-.464.424.424 0 0 0-.177-.354 4.122 4.122 0 0 0-.464-.329l-.523-.32a2.173 2.173 0 0 1-.599-.549c-.146-.213-.219-.489-.219-.826l.001-.062 1.215-.252ZM5.723.84c.326 0 .633.076.92.228.197.103.376.23.535.378l.308-.319.225 1.589-1.595-.168.354-.367a2.086 2.086 0 0 0-.258-.185.976.976 0 0 0-.54-.152c-.224 0-.399.06-.522.177a.64.64 0 0 0-.043.045l-.453-.94.09-.05a2.03 2.03 0 0 1 .98-.235Z" fill="#F05138" fill-rule="nonzero"/></g></svg>
